public/images/logos/san-jose-sharks.svg

<svg viewBox="0 0 24 16" xmlns="http://www.w3.org/2000/svg"><path d="m18.215 4.487-1.506 2.407c.164-.077.338-.156.511-.235l1.608-2.601s-2.734.598-5.225.85c.059.093.117.186.176.28 1.709-.18 3.492-.511 4.436-.701z"/><path d="m18.456 10.847c-.208-.865-.241-1.022-.702-1.255l-.075-.098c.847-1.517 1.459-3.327 1.459-3.543 0-.053-.023-.068-.056-.052-1.347.683-2.826 1.292-3.154 1.521l-.087.121c-.726-.646-1.347-1.1-1.587-1.269-1.506-2.956-3.816-5.033-5.305-5.777 0 .309 1.473 2.577 1.699 4.483-2.665-.182-6.045-.92-6.045-.92l2.911 4.709c-2.392.147-4.489.197-4.489.197 0 .166 2.669 1.442 6.61 2.334.863.195 1.504.164 1.924.164-.079-.086-.157-.17-.235-.252.571.348 1.093.695 1.562 1.008-.118.001-.247.002-.388.002-.948 0-1.664-.05-2.117-.084l-.412-.652c-.096-.017-.201-.038-.31-.061-.04-.009-.08-.018-.12-.026-.18-.04-.352-.082-.47-.11l.596.963c-.558.4-1.986 1.613-3.021 3.304l.09.167s1-.062 1.845-.086c0 0 .379-1.081 1.735-2.333l1.399 2.264 1.698-2.747c.109-.012.221-.024.334-.038.117.073.231.143.34.205-.059.034-.107.079-.146.146 0 0 .098.067.104.199 0 0 .084.014.172-.012 0 0 .06-.091.111-.2.111.058.216.106.314.146-.001.095.016.165.016.165s.107.033.238-.083c.752.172 1.202.026 1.202.026.764.226 1.152-.027 1.152-.027.299.131.549.205 1.368.205.445 0 .592-.054.592-.129.004-.359-.374-1.822-.752-2.575z"/><path d="m18.676 10.581.028.1s.244.167.422.217l.141-.103s-.081-.104-.055-.257c-.186-.119-.536.043-.536.043zm1.716-4.172-.192.342.042.261c-.86 1.692-1.817 3.223-1.817 3.223l.118.287.14-.097.096.008s.917-.877 2.085-3.141c0 0 .339.011.365-.262.028-.277.047-.47.047-.581-.422-.153-.884-.04-.884-.04z"/><g fill="#fff"><path d="m14.116 12.077c-.307.099-.438.029-.438.029.06-.061.099-.178.099-.178-.271.075-.356 0-.356 0 .044-.026.088-.13.088-.13-.353 0-.546.058-.546.058.293.037.484.166.647.332.229-.017.37-.037.469-.054zm1.137 1.028c.208-.123.359-.24.359-.24-.684.03-.941-.053-.941-.053.122-.122.274-.228.371-.324-.073.012-.149.02-.223.025-.001.033-.038.071-.142.135-.205.032-.406.062-.604.089.056.06.116.118.183.174.046-.016.096-.03.148-.048 0 .041-.011.09-.027.138.081.056.173.106.276.148.011-.067.031-.138.071-.2.035.01.054.11.073.139.051.074.117.086.13.147.287.066.65.084 1.131.023l.133-.107c-.702.013-.938-.046-.938-.046z"/><path d="m13.521 11.898s.149.01.321-.052c0 0 .01.115-.069.219 0 0 .146-.001.445-.07 0 0-.025.061-.062.127.054-.01.095-.016.138-.016.097 0 .108.021.192.021.159 0 .179.033.202.219.033.047.069.079.096.107.118-.01.254-.022.391-.042 0 0-.152.211-.382.367 0 0 .637.06.967.019 0 0-.142.173-.339.273 0 0 .44.028.913.02 0 0-.093.103-.186.178 0 0 .584.131 1 .032-1.501-.597-2.326-1.5-3.581-1.5-.018.054-.046.098-.046.098zm-6.051 2.702-.336.432s.992-.154 1.587-.064l.165-.283c-.325-.169-1.416-.085-1.416-.085z"/><path d="m7.624 14.406-.104.131s1.025-.078 1.397.095l.243-.365c-.331-.055-1.536.139-1.536.139zm.177-.217-.118.145s1.227-.191 1.517-.121l.021-.029c-.304-.1-1.42.005-1.42.005zm.413-.475-.356.408s.993-.104 1.402.012l.412-.477c-.418-.069-1.458.057-1.458.057zm.534-.536-.472.468s.87-.118 1.444-.043l.225-.249c-.215-.183-1.197-.176-1.197-.176z"/><path d="m8.838 13.096-.025.022s.849-.014 1.174.19l.049-.052c-.263-.149-1.198-.16-1.198-.16z"/><path d="m9.307 12.69-.405.349s.944.017 1.176.173l.348-.343c-.306-.175-1.119-.179-1.119-.179zm-.542 2.315.012.086.137-.237-.015-.083zm.181-.309.013.082.228-.333-.016-.093zm.273-.412.015.099.023-.029-.02-.096zm.065-.088.021.1.386-.436-.016-.119zm.442-.511.016.12.235-.25-.03-.115zm.267-.295.03.115.046-.047-.016-.133zm.111-.119.016.134.308-.301-.004-.157z"/></g><path d="m13.056 15.234c0-.183-.147-.33-.329-.33-.184 0-.331.147-.331.33s.147.33.331.33c.181 0 .329-.147.329-.33zm-.59 0c0-.144.116-.26.261-.26.143 0 .259.116.259.26s-.116.26-.259.26c-.145 0-.261-.116-.261-.26z"/><path d="m12.861 15.423-.074-.159c.044-.016.074-.058.074-.105 0-.062-.05-.112-.111-.112h-.16v.377h.071v-.154h.051l.071.153zm-.111-.224h-.089v-.083h.089c.022 0 .041.02.041.042s-.019.041-.041.041z"/><g fill="#ea7200"><path d="m14.104 13.262c.116-.156.194-.256.214-.318-.103.044-.234.068-.305.177 0-.001.051.05.091.141zm.596.107s.077-.01.146-.077c0 0-.073-.111-.115-.215-.051.13-.031.292-.031.292zm-.357-2.739c.062.492.18.701.18.701s.186.146.539.29c-.357-.66-.719-.991-.719-.991zm-3.869 2.198.142-.08s.585.095 4.086-.267c-.084-.061-.125-.049-.125-.188 0-.045.007-.053-.068-.053-.077 0-.109-.021-.199-.021-.113 0-.279.113-1.995.113-1.365 0-2.321-.114-2.385-.114-.062 0-.186.116-.551.41 0 .002.719-.007 1.095.2zm-1.783 2.193c-.527-.101-1.613.081-1.613.081l-.292.42 1.7-.08zm11.697-8.069c-.568 1.021-1.188 2.375-1.863 3.211l.195-.122.042-.042-.035.115.082-.04-.124.22.115-.094s.579-.65 2.043-3.294c-.325-.049-.455.046-.455.046zm.059-.397-.118.188s.286-.054.668-.022l.138-.194c-.42-.08-.688.028-.688.028z"/><path d="m18.642 10.183s-.054.044-.138.067l.071.151.044-.034-.018-.055.074-.14zm.508.392c-.12-.062-.352.029-.352.029s.235.056.368.116c.001.001-.022-.054-.016-.145zm-6.288 2.298c-.101.009-.198.018-.294.025-.751.061-1.343.078-1.654.084-.154.003-.24.003-.24.003-.009.007-.015.014-.024.021-.023.02-.044.039-.067.059l1.132 1.807 1.257-2.008c-.037.002-.073.006-.11.009m3.699-5.91c.049-.022.098-.045.148-.069l1.506-2.407c-.943.189-2.727.521-4.436.701.017.028.033.056.05.084.039.063.076.127.114.192 1.322-.146 2.677-.376 3.667-.562l-1.408 2.233c.107-.052.228-.111.359-.172m-6.592 4.52c-.096-.017-.201-.038-.31-.061-.04-.009-.08-.018-.12-.026l.446.712c.031.002.066.004.106.007.08.005.177.013.289.021z"/></g><path d="m12.568 12.898c-.751.061-1.343.078-1.654.084-.154.003-.24.003-.24.003-.009.007-.015.014-.024.021l1.065 1.702 1.147-1.835c-.1.009-.198.018-.294.025zm-2.476-.783c.08.005.177.013.289.021l-.412-.652c-.096-.017-.201-.038-.31-.061zm7.518-7.213-1.408 2.233c.106-.053.228-.111.358-.173l1.469-2.347c-.929.182-2.591.484-4.2.657.039.063.076.127.114.192 1.323-.145 2.677-.375 3.667-.562zm-6.932.542c0-.104-.004-.209-.015-.316-.915.097-1.462.313-1.67.412.32-.09.891-.117 1.685-.096zm6.959 4.223s-1.114-1.564-3.256-3.141c.182.376.352.765.504 1.167.021.056.018.105-.029.105-.47 0-2.126-.911-3.753-.748.845.805 1.686 1.934.871 1.521 0 0 .85.525 1.849 1.579.744 0 .893.125.937.229.084.2.207.558.695 1.132.224 0 .265-.015.347-.215 0 0 .061.256-.052.444 1.016.803 2.988 1.61 3.289 1.61.122 0-.128-1.104-.699-2.431-.188-.837-.29-1.073-.703-1.252zm-9.257-.956s.291.172.768.531c-.117-.203-.426-.424-.765-.629l-.741.055.055.088c.225-.014.454-.029.683-.045zm4.371 1.301c-.117.635.006 1.145.006 1.145-.02-.212.146-.924.146-.924zm-.372-.364c-.117.729.048 1.311.048 1.311-.035-.268.104-1.057.104-1.057zm-.369-.33c-.12.779.067 1.401.067 1.401-.036-.354.085-1.18.085-1.18zm-.84-1.284s-1.432-1.186-3.211-1.484c-.064 0-.192.27-.192.27s.188-.17.245-.17c1.522.294 3.158 1.384 3.158 1.384z" fill="#006d75"/><path d="m11.715 14.251.854-1.353c-.751.061-1.343.078-1.654.084z" fill="#fff"/></svg>

<svg xmlns="http://www.w3.org/2000/svg" viewBox="0 0 24 16"><path d="M18.215,4.487l-1.506,2.407c0.164-0.077,0.338-0.156,0.511-0.235l1.608-2.601c0,0-2.734,0.598-5.225,0.85 c0.059,0.093,0.117,0.186,0.176,0.28C15.488,5.008,17.271,4.677,18.215,4.487z"/><path d="M18.456,10.847c-0.208-0.865-0.241-1.022-0.702-1.255l-0.075-0.098c0.847-1.517,1.459-3.327,1.459-3.543 c0-0.053-0.023-0.068-0.056-0.052c-1.347,0.683-2.826,1.292-3.154,1.521l-0.087,0.121c-0.726-0.646-1.347-1.1-1.587-1.269 c-1.506-2.956-3.816-5.033-5.305-5.777c0,0.309,1.473,2.577,1.699,4.483c-2.665-0.182-6.045-0.92-6.045-0.92l2.911,4.709 C5.122,8.914,3.025,8.964,3.025,8.964c0,0.166,2.669,1.442,6.61,2.334c0.863,0.195,1.504,0.164,1.924,0.164 c-0.079-0.086-0.157-0.17-0.235-0.252c0.571,0.348,1.093,0.695,1.562,1.008c-0.118,0.001-0.247,0.002-0.388,0.002 c-0.948,0-1.664-0.05-2.117-0.084l-0.412-0.652c-0.096-0.017-0.201-0.038-0.31-0.061c-0.04-0.009-0.08-0.018-0.12-0.026 c-0.18-0.04-0.352-0.082-0.47-0.11l0.596,0.963c-0.558,0.4-1.986,1.613-3.021,3.304l0.09,0.167c0,0,1-0.062,1.845-0.086 c0,0,0.379-1.081,1.735-2.333l1.399,2.264l1.698-2.747c0.109-0.012,0.221-0.024,0.334-0.038c0.117,0.073,0.231,0.143,0.34,0.205 c-0.059,0.034-0.107,0.079-0.146,0.146c0,0,0.098,0.067,0.104,0.199c0,0,0.084,0.014,0.172-0.012c0,0,0.06-0.091,0.111-0.2 c0.111,0.058,0.216,0.106,0.314,0.146c-0.001,0.095,0.016,0.165,0.016,0.165s0.107,0.033,0.238-0.083 c0.752,0.172,1.202,0.026,1.202,0.026c0.764,0.226,1.152-0.027,1.152-0.027c0.299,0.131,0.549,0.205,1.368,0.205 c0.445,0,0.592-0.054,0.592-0.129C19.212,13.063,18.834,11.6,18.456,10.847z"/><path d="M18.676 10.581l.028.1c0 0 .244.167.422.217l.141-.103c0 0-.081-.104-.055-.257C19.026 10.419 18.676 10.581 18.676 10.581zM20.392 6.409l-.192.342.042.261c-.86 1.692-1.817 3.223-1.817 3.223l.118.287.14-.097.096.008c0 0 .917-.877 2.085-3.141 0 0 .339.011.365-.262.028-.277.047-.47.047-.581C20.854 6.296 20.392 6.409 20.392 6.409z"/><path fill="#FFF" d="M14.116 12.077c-.307.099-.438.029-.438.029.06-.061.099-.178.099-.178-.271.075-.356 0-.356 0 .044-.026.088-.13.088-.13-.353 0-.546.058-.546.058.293.037.484.166.647.332.229-.017.37-.037.469-.054L14.116 12.077zM15.253 13.105c.208-.123.359-.24.359-.24-.684.03-.941-.053-.941-.053.122-.122.274-.228.371-.324-.073.012-.149.02-.223.025-.001.033-.038.071-.142.135-.205.032-.406.062-.604.089.056.06.116.118.183.174.046-.016.096-.03.148-.048 0 .041-.011.09-.027.138.081.056.173.106.276.148.011-.067.031-.138.071-.2.035.01.054.11.073.139.051.074.117.086.13.147.287.066.65.084 1.131.023l.133-.107C15.489 13.164 15.253 13.105 15.253 13.105z"/><path fill="#FFF" d="M13.521 11.898c0 0 .149.01.321-.052 0 0 .01.115-.069.219 0 0 .146-.001.445-.07 0 0-.025.061-.062.127.054-.01.095-.016.138-.016.097 0 .108.021.192.021.159 0 .179.033.202.219.033.047.069.079.096.107.118-.01.254-.022.391-.042 0 0-.152.211-.382.367 0 0 .637.06.967.019 0 0-.142.173-.339.273 0 0 .44.028.913.02 0 0-.093.103-.186.178 0 0 .584.131 1 .032-1.501-.597-2.326-1.5-3.581-1.5C13.549 11.854 13.521 11.898 13.521 11.898zM7.47 14.6l-.336.432c0 0 .992-.154 1.587-.064l.165-.283C8.561 14.516 7.47 14.6 7.47 14.6z"/><path fill="#FFF" d="M7.624 14.406L7.52 14.537c0 0 1.025-.078 1.397.095l.243-.365C8.829 14.212 7.624 14.406 7.624 14.406zM7.801 14.189l-.118.145c0 0 1.227-.191 1.517-.121l.021-.029C8.917 14.084 7.801 14.189 7.801 14.189zM8.214 13.714l-.356.408c0 0 .993-.104 1.402.012l.412-.477C9.254 13.588 8.214 13.714 8.214 13.714zM8.748 13.178l-.472.468c0 0 .87-.118 1.444-.043l.225-.249C9.73 13.171 8.748 13.178 8.748 13.178z"/><path fill="#FFF" d="M8.838,13.096l-0.025,0.022c0,0,0.849-0.014,1.174,0.19l0.049-0.052 C9.773,13.107,8.838,13.096,8.838,13.096z"/><path fill="#FFF" d="M9.307 12.69l-.405.349c0 0 .944.017 1.176.173l.348-.343C10.12 12.694 9.307 12.69 9.307 12.69zM8.765 15.005L8.777 15.091 8.914 14.854 8.899 14.771zM8.946 14.696L8.959 14.778 9.187 14.445 9.171 14.352zM9.219 14.284L9.234 14.383 9.257 14.354 9.237 14.258zM9.284 14.196L9.305 14.296 9.691 13.86 9.675 13.741zM9.726 13.685L9.742 13.805 9.977 13.555 9.947 13.44zM9.993 13.39L10.023 13.505 10.069 13.458 10.053 13.325zM10.104 13.271L10.12 13.405 10.428 13.104 10.424 12.947z"/><path d="M13.056,15.234c0-0.183-0.147-0.33-0.329-0.33c-0.184,0-0.331,0.147-0.331,0.33s0.147,0.33,0.331,0.33 C12.908,15.564,13.056,15.417,13.056,15.234z M12.466,15.234c0-0.144,0.116-0.26,0.261-0.26c0.143,0,0.259,0.116,0.259,0.26 s-0.116,0.26-0.259,0.26C12.582,15.494,12.466,15.378,12.466,15.234z"/><path d="M12.861,15.423l-0.074-0.159c0.044-0.016,0.074-0.058,0.074-0.105c0-0.062-0.05-0.112-0.111-0.112h-0.16 v0.377h0.071V15.27h0.051l0.071,0.153H12.861z M12.75,15.199h-0.089v-0.083h0.089c0.022,0,0.041,0.02,0.041,0.042 S12.772,15.199,12.75,15.199z"/><g fill="#EA7200"><path d="M14.104 13.262c.116-.156.194-.256.214-.318-.103.044-.234.068-.305.177C14.013 13.12 14.064 13.171 14.104 13.262zM14.7 13.369c0 0 .077-.01.146-.077 0 0-.073-.111-.115-.215C14.68 13.207 14.7 13.369 14.7 13.369zM14.343 10.63c.062.492.18.701.18.701s.186.146.539.29C14.705 10.961 14.343 10.63 14.343 10.63zM10.474 12.828l.142-.08c0 0 .585.095 4.086-.267-.084-.061-.125-.049-.125-.188 0-.045.007-.053-.068-.053-.077 0-.109-.021-.199-.021-.113 0-.279.113-1.995.113-1.365 0-2.321-.114-2.385-.114-.062 0-.186.116-.551.41C9.379 12.63 10.098 12.621 10.474 12.828zM8.691 15.021c-.527-.101-1.613.081-1.613.081l-.292.42 1.7-.08L8.691 15.021zM20.388 6.952c-.568 1.021-1.188 2.375-1.863 3.211l.195-.122.042-.042-.035.115.082-.04-.124.22L18.8 10.2c0 0 .579-.65 2.043-3.294C20.518 6.857 20.388 6.952 20.388 6.952zM20.447 6.555l-.118.188c0 0 .286-.054.668-.022l.138-.194C20.715 6.447 20.447 6.555 20.447 6.555z"/><path d="M18.642 10.183c0 0-.054.044-.138.067l.071.151.044-.034-.018-.055.074-.14L18.642 10.183zM19.15 10.575c-.12-.062-.352.029-.352.029s.235.056.368.116C19.167 10.721 19.144 10.666 19.15 10.575zM12.862 12.873c-.101.009-.198.018-.294.025-.751.061-1.343.078-1.654.084-.154.003-.24.003-.24.003-.009.007-.015.014-.024.021-.023.02-.044.039-.067.059l1.132 1.807 1.257-2.008C12.935 12.866 12.899 12.87 12.862 12.873M16.561 6.963c.049-.022.098-.045.148-.069l1.506-2.407c-.943.189-2.727.521-4.436.701.017.028.033.056.05.084.039.063.076.127.114.192 1.322-.146 2.677-.376 3.667-.562l-1.408 2.233C16.309 7.083 16.43 7.024 16.561 6.963M9.969 11.483c-.096-.017-.201-.038-.31-.061-.04-.009-.08-.018-.12-.026l.446.712c.031.002.066.004.106.007.08.005.177.013.289.021L9.969 11.483z"/></g><g fill="#006D75"><path d="M12.568 12.898c-.751.061-1.343.078-1.654.084-.154.003-.24.003-.24.003-.009.007-.015.014-.024.021l1.065 1.702 1.147-1.835C12.762 12.882 12.664 12.891 12.568 12.898zM10.092 12.115c.08.005.177.013.289.021l-.412-.652c-.096-.017-.201-.038-.31-.061L10.092 12.115zM17.61 4.902l-1.408 2.233c.106-.053.228-.111.358-.173l1.469-2.347c-.929.182-2.591.484-4.2.657.039.063.076.127.114.192C15.266 5.319 16.62 5.089 17.61 4.902zM10.678 5.444c0-.104-.004-.209-.015-.316C9.748 5.225 9.201 5.441 8.993 5.54 9.313 5.45 9.884 5.423 10.678 5.444zM17.637 9.667c0 0-1.114-1.564-3.256-3.141.182.376.352.765.504 1.167.021.056.018.105-.029.105-.47 0-2.126-.911-3.753-.748.845.805 1.686 1.934.871 1.521 0 0 .85.525 1.849 1.579.744 0 .893.125.937.229.084.2.207.558.695 1.132.224 0 .265-.015.347-.215 0 0 .061.256-.052.444 1.016.803 2.988 1.61 3.289 1.61.122 0-.128-1.104-.699-2.431C18.152 10.082 18.05 9.846 17.637 9.667zM8.38 8.711c0 0 .291.172.768.531C9.031 9.039 8.722 8.818 8.383 8.613L7.642 8.668l.055.088C7.922 8.742 8.151 8.727 8.38 8.711zM12.751 10.012c-.117.635.006 1.145.006 1.145-.02-.212.146-.924.146-.924L12.751 10.012zM12.379 9.648c-.117.729.048 1.311.048 1.311-.035-.268.104-1.057.104-1.057L12.379 9.648zM12.01 9.318c-.12.779.067 1.401.067 1.401-.036-.354.085-1.18.085-1.18L12.01 9.318zM11.17 8.034c0 0-1.432-1.186-3.211-1.484-.064 0-.192.27-.192.27S7.955 6.65 8.012 6.65C9.534 6.944 11.17 8.034 11.17 8.034z"/></g><path fill="#FFF" d="M11.715,14.251l0.854-1.353c-0.751,0.061-1.343,0.078-1.654,0.084L11.715,14.251z"/></svg>
